icons/heart-rate-filled.svg

<svg width="24" height="24" viewBox="0 0 24 24" fill="none" xmlns="http://www.w3.org/2000/svg">
<path fill-rule="evenodd" clip-rule="evenodd" d="M12 20.994C11.74 20.994 11.409 20.871 11.004 20.625C9.97701 20.073 4.63901 16.183 3.21101 13.447H6.61101L9.09101 15.69C9.37801 15.925 9.65801 16.03 9.93101 16.003C10.204 15.976 10.439 15.82 10.634 15.537L12.217 12.034L14.051 14.662C14.219 14.862 14.416 14.975 14.642 15C14.8546 15.0278 15.0705 14.9857 15.257 14.88L17.36 13.44H20.79C19.367 16.19 13.933 20.006 12.998 20.625C12.593 20.871 12.26 20.995 12.001 20.995L12 20.994ZM19.424 11.461L17.383 11.453C17.055 11.453 16.823 11.475 16.687 11.521C16.551 11.566 16.385 11.666 16.19 11.821L15.09 12.588L12.935 9.58C12.718 9.193 12.405 8.998 12 8.995C11.593 8.991 11.3 9.186 11.117 9.58L9.45201 13.324L7.77201 11.778C7.66252 11.6703 7.53446 11.5832 7.39401 11.521C7.29101 11.483 7.11801 11.461 6.87501 11.452H2.39101C2.13055 10.6591 1.99855 9.82961 2.00001 8.995C2.00001 5.627 4.42001 3 7.50001 3C9.24001 3 10.91 3.883 12 5.267C13.09 3.883 14.76 3 16.5 3C19.58 3 22 5.627 22 8.995C22 9.815 21.865 10.629 21.607 11.461H19.424Z" fill="#3A3A47"/>
</svg>

<svg xmlns="http://www.w3.org/2000/svg" width="24" height="24" viewBox="0 0 24 24">
    <path fill="#3A3A47" fill-rule="evenodd" d="M12.217 12.034l1.834 2.628c.168.2.365.313.591.338a.988.988 0 0 0 .615-.12l2.103-1.44h3.429c-1.423 2.75-6.857 6.566-7.792 7.185-.405.246-.738.37-.997.37-.26 0-.591-.124-.996-.37-1.027-.552-6.365-4.442-7.793-7.178h3.4l2.48 2.243c.287.235.567.34.84.313.273-.027.508-.183.703-.466l1.583-3.503zM16.5 3C19.58 3 22 5.627 22 8.995c0 .82-.135 1.634-.393 2.466h-2.183l-2.041-.008c-.328 0-.56.022-.696.068-.136.045-.302.145-.497.3l-1.1.767-2.155-3.008c-.217-.387-.53-.582-.935-.585-.407-.004-.7.191-.883.585l-1.665 3.744-1.68-1.546a1.275 1.275 0 0 0-.378-.257c-.103-.038-.276-.06-.519-.069H2.392A7.829 7.829 0 0 1 2 8.995C2 5.627 4.42 3 7.5 3c1.74 0 3.41.883 4.5 2.267C13.09 3.883 14.76 3 16.5 3z"/>
</svg>
